libs/theme/assets/icons/tick-red.svg

<svg xmlns="http://www.w3.org/2000/svg" viewBox="0 0 14 14"><defs><style>.cls-1{fill:#8e1a1c;}.cls-2{fill:none;stroke:#fff;stroke-linecap:round;stroke-width:1.5px;}</style></defs><title>Asset 6</title><g id="Layer_2" data-name="Layer 2"><g id="Layer_1-2" data-name="Layer 1"><path class="cls-1" d="M14,7a7.06,7.06,0,0,1-.13,1.37,7.61,7.61,0,0,1-.4,1.31,7.05,7.05,0,0,1-.65,1.21A8,8,0,0,1,12,12a8,8,0,0,1-1.06.87,7.05,7.05,0,0,1-1.21.65,7.61,7.61,0,0,1-1.31.4,7.28,7.28,0,0,1-2.74,0,7.61,7.61,0,0,1-1.31-.4,7.05,7.05,0,0,1-1.21-.65A8,8,0,0,1,2.05,12a8,8,0,0,1-.87-1.06A7.05,7.05,0,0,1,.53,9.68a7.61,7.61,0,0,1-.4-1.31,7.28,7.28,0,0,1,0-2.74,7.61,7.61,0,0,1,.4-1.31,7.05,7.05,0,0,1,.65-1.21,8,8,0,0,1,.87-1.06,8,8,0,0,1,1.06-.87A7.05,7.05,0,0,1,4.32.53,7.61,7.61,0,0,1,5.63.13a7.28,7.28,0,0,1,2.74,0,7.61,7.61,0,0,1,1.31.4,7.05,7.05,0,0,1,1.21.65A8,8,0,0,1,12,2.05a8,8,0,0,1,.87,1.06,7.05,7.05,0,0,1,.65,1.21,7.61,7.61,0,0,1,.4,1.31A7.06,7.06,0,0,1,14,7Z"/><line class="cls-2" x1="4.2" y1="9.96" x2="9.86" y2="4.3"/><line class="cls-2" x1="4.2" y1="4.31" x2="9.86" y2="9.97"/></g></g></svg>

<?xml version="1.0" encoding="utf-8"?>
<!-- Generator: Adobe Illustrator 23.0.1, SVG Export Plug-In . SVG Version: 6.00 Build 0)  -->
<svg version="1.1" id="Layer_1" xmlns="http://www.w3.org/2000/svg" xmlns:xlink="http://www.w3.org/1999/xlink" x="0px" y="0px"
	 viewBox="0 0 14 14" style="enable-background:new 0 0 14 14;" xml:space="preserve">
<style type="text/css">
	.st0{fill:#8E1216;}
	.st1{fill:none;stroke:#FFFFFF;stroke-width:1.5;stroke-linecap:round;}
</style>
<title>Asset 6</title>
<g>
	<g id="Layer_1-2">
		<path class="st0" d="M14,7c0,0.5,0,0.9-0.1,1.4c-0.1,0.4-0.2,0.9-0.4,1.3c-0.2,0.4-0.4,0.8-0.6,1.2c-0.2,0.4-0.5,0.8-0.8,1.1
			c-0.3,0.3-0.7,0.6-1.1,0.9c-0.4,0.3-0.8,0.5-1.2,0.6c-0.4,0.2-0.9,0.3-1.3,0.4c-0.9,0.2-1.8,0.2-2.7,0c-0.4-0.1-0.9-0.2-1.3-0.4
			c-0.4-0.2-0.8-0.4-1.2-0.6C2.8,12.6,2.4,12.3,2,12c-0.3-0.3-0.6-0.7-0.9-1.1c-0.3-0.4-0.5-0.8-0.6-1.3C0.4,9.3,0.2,8.8,0.1,8.4
			C0,7.5,0,6.5,0.1,5.6c0.1-0.4,0.2-0.9,0.4-1.3c0.2-0.4,0.4-0.8,0.6-1.2C1.4,2.7,1.7,2.4,2,2.1c0.3-0.3,0.7-0.6,1.1-0.9
			c0.4-0.3,0.8-0.5,1.2-0.7c0.4-0.2,0.9-0.3,1.3-0.4C6.5,0,7.5,0,8.4,0.1c0.4,0.1,0.9,0.2,1.3,0.4c0.4,0.2,0.8,0.4,1.2,0.6
			C11.3,1.4,11.7,1.7,12,2c0.3,0.3,0.6,0.7,0.9,1.1c0.3,0.4,0.5,0.8,0.6,1.2c0.2,0.4,0.3,0.9,0.4,1.3C14,6.1,14,6.5,14,7z"/>
		<line class="st1" x1="4.2" y1="10" x2="9.9" y2="4.3"/>
		<line class="st1" x1="4.2" y1="4.3" x2="9.9" y2="10"/>
	</g>
</g>
</svg>
